X: 34882
T: Robertsons Of Raga
R: reel
M: 4/4
K: Dmajor
dB|ABDE DEFG|ABAF BAFD|E3F GFGA|BEED E2EF|
G3A BABc|dedB BAFD|E3F GFED|BDDE D2:|
|:dB|Ad d2 fd d2|adfd edBA|Beed ecde|fBBA B2dB|
Ad d2 fd d2|adfd edBA|BcdB BAFB|AFEF D2:|

